tools/download-figma-icons/icons/outlined-medium/item-list.svg

<svg width="24" height="24" viewBox="0 0 24 24" fill="none" xmlns="http://www.w3.org/2000/svg">
<path fill-rule="evenodd" clip-rule="evenodd" d="M5.25 2.25H3C2.17157 2.25 1.5 2.92157 1.5 3.75V6C1.5 6.82843 2.17157 7.5 3 7.5H5.25C6.07843 7.5 6.75 6.82843 6.75 6V3.75C6.75 2.92157 6.07843 2.25 5.25 2.25ZM3 3.75H5.25V6H3V3.75ZM5.25 9H3C2.17157 9 1.5 9.67157 1.5 10.5V12.75C1.5 13.5784 2.17157 14.25 3 14.25H5.25C6.07843 14.25 6.75 13.5784 6.75 12.75V10.5C6.75 9.67157 6.07843 9 5.25 9ZM3 10.5H5.25V12.75H3V10.5ZM3 15.75H5.25C6.07843 15.75 6.75 16.4216 6.75 17.25V19.5C6.75 20.3284 6.07843 21 5.25 21H3C2.17157 21 1.5 20.3284 1.5 19.5V17.25C1.5 16.4216 2.17157 15.75 3 15.75ZM5.25 17.25H3V19.5H5.25V17.25ZM9.25 3.75C8.69772 3.75 8.25 4.19772 8.25 4.75V5C8.25 5.55228 8.69771 6 9.25 6H21.5C22.0523 6 22.5 5.55228 22.5 5V4.75C22.5 4.19772 22.0523 3.75 21.5 3.75H9.25ZM8.25 11.5C8.25 10.9477 8.69772 10.5 9.25 10.5H21.5C22.0523 10.5 22.5 10.9477 22.5 11.5V11.75C22.5 12.3023 22.0523 12.75 21.5 12.75H9.25C8.69771 12.75 8.25 12.3023 8.25 11.75V11.5ZM9.25 17.25C8.69772 17.25 8.25 17.6977 8.25 18.25V18.5C8.25 19.0523 8.69771 19.5 9.25 19.5H21.5C22.0523 19.5 22.5 19.0523 22.5 18.5V18.25C22.5 17.6977 22.0523 17.25 21.5 17.25H9.25Z" fill="black"/>
</svg>

<svg width="24" height="24" viewBox="0 0 24 24" fill="none" xmlns="http://www.w3.org/2000/svg"><path fill-rule="evenodd" clip-rule="evenodd" d="M5.25 2.25H3a1.5 1.5 0 0 0-1.5 1.5V6A1.5 1.5 0 0 0 3 7.5h2.25A1.5 1.5 0 0 0 6.75 6V3.75a1.5 1.5 0 0 0-1.5-1.5ZM3 3.75h2.25V6H3V3.75ZM5.25 9H3a1.5 1.5 0 0 0-1.5 1.5v2.25a1.5 1.5 0 0 0 1.5 1.5h2.25a1.5 1.5 0 0 0 1.5-1.5V10.5A1.5 1.5 0 0 0 5.25 9ZM3 10.5h2.25v2.25H3V10.5Zm0 5.25h2.25a1.5 1.5 0 0 1 1.5 1.5v2.25a1.5 1.5 0 0 1-1.5 1.5H3a1.5 1.5 0 0 1-1.5-1.5v-2.25a1.5 1.5 0 0 1 1.5-1.5Zm2.25 1.5H3v2.25h2.25v-2.25Zm4-13.5a1 1 0 0 0-1 1V5a1 1 0 0 0 1 1H21.5a1 1 0 0 0 1-1v-.25a1 1 0 0 0-1-1H9.25Zm-1 7.75a1 1 0 0 1 1-1H21.5a1 1 0 0 1 1 1v.25a1 1 0 0 1-1 1H9.25a1 1 0 0 1-1-1v-.25Zm1 5.75a1 1 0 0 0-1 1v.25a1 1 0 0 0 1 1H21.5a1 1 0 0 0 1-1v-.25a1 1 0 0 0-1-1H9.25Z" fill="currentColor"/></svg>
